humanity-icon-theme/Humanity/apps/24/system-upgrade.svg

<?xml version="1.0" encoding="UTF-8" standalone="no"?>
<!-- Created with Inkscape (http://www.inkscape.org/) -->

<svg
   xmlns:svg="http://www.w3.org/2000/svg"
   xmlns="http://www.w3.org/2000/svg"
   xmlns:xlink="http://www.w3.org/1999/xlink"
   version="1.0"
   width="24"
   height="24"
   id="svg2">
  <defs
     id="defs4">
    <linearGradient
       id="linearGradient5128">
      <stop
         id="stop5130"
         style="stop-color:#eee;stop-opacity:1"
         offset="0" />
      <stop
         id="stop5132"
         style="stop-color:#a2a2a2;stop-opacity:1"
         offset="1" />
    </linearGradient>
    <linearGradient
       x1="86.132919"
       y1="105.105"
       x2="84.63858"
       y2="20.895"
       id="linearGradient3241"
       xlink:href="#linearGradient5128"
       gradientUnits="userSpaceOnUse"
       gradientTransform="matrix(0.1562313,0,0,0.1562313,2.0012016,2.1574324)" />
    <linearGradient
       id="linearGradient3397">
      <stop
         id="stop3399"
         style="stop-color:#aaa;stop-opacity:1"
         offset="0" />
      <stop
         id="stop3401"
         style="stop-color:#8c8c8c;stop-opacity:1"
         offset="1" />
    </linearGradient>
    <linearGradient
       x1="40"
       y1="1"
       x2="40"
       y2="23.019524"
       id="linearGradient3228"
       xlink:href="#linearGradient3397"
       gradientUnits="userSpaceOnUse"
       gradientTransform="translate(-24.5,0)" />
    <linearGradient
       x1="63.9995"
       y1="3.1001"
       x2="63.9995"
       y2="122.8994"
       id="linearGradient3309"
       gradientUnits="userSpaceOnUse">
      <stop
         id="stop3311"
         style="stop-color:#f6f6f6;stop-opacity:1"
         offset="0" />
      <stop
         id="stop3313"
         style="stop-color:#d2d2d2;stop-opacity:1"
         offset="1" />
    </linearGradient>
    <linearGradient
       x1="34"
       y1="1"
       x2="34"
       y2="23.00024"
       id="linearGradient3218"
       xlink:href="#linearGradient3309"
       gradientUnits="userSpaceOnUse"
       gradientTransform="translate(-24.5,0)" />
    <linearGradient
       id="linearGradient10691">
      <stop
         id="stop10693"
         style="stop-color:black;stop-opacity:1"
         offset="0" />
      <stop
         id="stop10695"
         style="stop-color:black;stop-opacity:0"
         offset="1" />
    </linearGradient>
    <radialGradient
       cx="6.702713"
       cy="73.615715"
       r="7.228416"
       fx="6.702713"
       fy="73.615715"
       id="radialGradient2411"
       xlink:href="#linearGradient10691"
       gradientUnits="userSpaceOnUse"
       gradientTransform="matrix(1.660115,0,0,0.3458573,0.8727276,-3.9605294)" />
    <linearGradient
       id="linearGradient4222">
      <stop
         id="stop4224"
         style="stop-color:white;stop-opacity:1"
         offset="0" />
      <stop
         id="stop4226"
         style="stop-color:white;stop-opacity:0"
         offset="1" />
    </linearGradient>
    <linearGradient
       x1="30.925467"
       y1="28.26301"
       x2="3.8764322"
       y2="28.26301"
       id="linearGradient2532"
       xlink:href="#linearGradient4222"
       gradientUnits="userSpaceOnUse"
       gradientTransform="matrix(0,-0.3704967,-0.3617496,0,-11.632037,27.595814)" />
    <linearGradient
       id="linearGradient5432">
      <stop
         id="stop5434"
         style="stop-color:#ce5c00;stop-opacity:1"
         offset="0" />
      <stop
         id="stop5436"
         style="stop-color:#ce5c00;stop-opacity:0"
         offset="1" />
    </linearGradient>
    <linearGradient
       x1="15.53005"
       y1="16.50103"
       x2="15.53005"
       y2="24.047995"
       id="linearGradient2530"
       xlink:href="#linearGradient5432"
       gradientUnits="userSpaceOnUse"
       gradientTransform="translate(-37.140352,2.2637597)" />
    <linearGradient
       id="linearGradient2442">
      <stop
         id="stop2444"
         style="stop-color:#fcaf3e;stop-opacity:1"
         offset="0" />
      <stop
         id="stop2446"
         style="stop-color:#f57900;stop-opacity:0"
         offset="1" />
    </linearGradient>
    <linearGradient
       x1="22.173235"
       y1="20.489962"
       x2="46.895916"
       y2="20.489962"
       id="linearGradient2528"
       xlink:href="#linearGradient2442"
       gradientUnits="userSpaceOnUse"
       gradientTransform="matrix(0,0.319447,-0.313352,0,-13.654071,11.17789)" />
  </defs>
  <g
     id="layer1">
    <g
       id="g2568">
      <g
         id="g2486">
        <path
           d="m 24.000001,21.5 c 0,1.380712 -5.372583,2.5 -12,2.5 C 5.3725835,24 3e-7,22.880712 3e-7,21.5 3e-7,20.119288 5.3725835,19 12.000001,19 c 6.627417,0 12,1.119288 12,2.5 z"
           id="path10689"
           style="opacity:0.2;fill:url(#radialGradient2411);fill-opacity:1;fill-rule:nonzero;stroke:none;stroke-width:0.80000001;marker:none;visibility:visible;display:inline;overflow:visible" />
        <path
           d="M 10.1875,1.5 C 9.799134,1.5 9.5,1.7991339 9.5,2.1875 l 0,1.6875 C 8.988333,4.0322247 8.496816,4.2537684 8.03125,4.5 L 6.84375,3.3125 c -0.274616,-0.2746162 -0.725384,-0.2746162 -1,0 L 3.3125,5.84375 c -0.274616,0.2746162 -0.274616,0.7253836 0,1 L 4.5,8.03125 C 4.253769,8.4968155 4.032225,8.9883329 3.875,9.5 l -1.6875,0 C 1.799134,9.5 1.5,9.7991344 1.5,10.1875 l 0,3.625 C 1.5,14.200866 1.799134,14.5 2.1875,14.5 l 1.6875,0 c 0.157225,0.511667 0.378769,1.003185 0.625,1.46875 l -1.1875,1.1875 c -0.274616,0.274616 -0.274616,0.725384 0,1 l 2.53125,2.53125 c 0.274616,0.274616 0.725384,0.274616 1,0 L 8.03125,19.5 C 8.496816,19.746232 8.988333,19.967775 9.5,20.125 l 0,1.6875 c 0,0.388366 0.299135,0.6875 0.6875,0.6875 l 3.625,0 c 0.388366,0 0.6875,-0.299134 0.6875,-0.6875 l 0,-1.6875 c 0.511667,-0.157225 1.003185,-0.378768 1.46875,-0.625 l 1.1875,1.1875 c 0.274616,0.274616 0.725384,0.274616 1,0 l 2.53125,-2.53125 c 0.274616,-0.274616 0.274616,-0.725384 0,-1 L 19.5,15.96875 C 19.746232,15.503185 19.967775,15.011667 20.125,14.5 l 1.6875,0 c 0.388366,0 0.6875,-0.299134 0.6875,-0.6875 l 0,-3.625 C 22.5,9.7991341 22.200866,9.5 21.8125,9.5 l -1.6875,0 C 19.967775,8.9883329 19.746232,8.4968155 19.5,8.03125 l 1.1875,-1.1875 c 0.274616,-0.2746162 0.274616,-0.7253837 0,-1 L 18.15625,3.3125 c -0.274616,-0.2746162 -0.725384,-0.2746162 -1,0 L 15.96875,4.5 C 15.503185,4.2537684 15.011667,4.0322247 14.5,3.875 l 0,-1.6875 C 14.5,1.7991341 14.200866,1.5 13.8125,1.5 l -3.625,0 z M 12,9 c 1.656,0 3,1.344 3,3 0,1.656 -1.344,3 -3,3 -1.656,0 -3,-1.344 -3,-3 0,-1.656 1.344,-3 3,-3 z"
           id="rect2426"
           style="fill:url(#linearGradient3218);fill-opacity:1;fill-rule:nonzero;stroke:url(#linearGradient3228);stroke-width:1;stroke-linecap:butt;stroke-linejoin:round;stroke-miterlimit:4;stroke-opacity:1;stroke-dasharray:none;stroke-dashoffset:0;marker:none;visibility:visible;display:block;overflow:visible;enable-background:accumulate" />
        <path
           d="m 12,6 c -3.3084557,-2e-7 -5.9999999,2.6915446 -5.9999999,6 0,3.308455 2.6915442,6 5.9999999,6 3.308455,-1e-6 6,-2.691545 6,-6 0,-3.3084554 -2.691545,-6 -6,-6 z m 0,2.7692308 c 1.783385,0 3.230769,1.4473842 3.230769,3.2307692 0,1.783385 -1.447384,3.230769 -3.230769,3.230769 -1.783385,0 -3.2307692,-1.447384 -3.2307692,-3.230769 0,-1.783385 1.4473842,-3.2307692 3.2307692,-3.2307692 z"
           id="path3315"
           style="opacity:0.05;fill:black;fill-opacity:1;stroke:none" />
        <path
           d="m 11.999999,5.4999995 c -3.5840997,0 -6.4999994,2.9158997 -6.4999994,6.4999995 C 5.4999996,15.5841 8.4158993,18.5 11.999999,18.5 15.584101,18.5 18.5,15.5841 18.5,11.999999 18.5,8.4158992 15.584101,5.4999995 11.999999,5.4999995 z"
           id="path28"
           style="fill:none;stroke:url(#linearGradient3241);stroke-width:1;stroke-miterlimit:4;stroke-dasharray:none" />
      </g>
    </g>
    <g
       transform="translate(38.465159,-2.4273822)"
       id="g3323">
      <path
         d="m -14.964306,18.76376 -6.191561,-7.000853 -6.160531,7.000853 2.676046,0 0,8.133434 7,0 0,-8.133434 2.676046,0 z"
         id="path2851"
         style="fill:url(#linearGradient2528);fill-opacity:1;fill-rule:nonzero;stroke:url(#linearGradient2530);stroke-width:0.99829447;stroke-linecap:round;stroke-linejoin:round;stroke-miterlimit:4;stroke-opacity:1;stroke-dasharray:none;stroke-dashoffset:0;marker:none;visibility:visible;display:inline;overflow:visible" />
      <path
         d="m -17.213949,17.76376 -3.926403,-4.545115 -4.036938,4.545115 1.536938,0 0,9.164475 5,0 0,-9.164475 1.426403,0 z"
         id="path2853"
         style="opacity:0.35400008;fill:none;stroke:url(#linearGradient2532);stroke-width:0.99829447;stroke-linecap:butt;stroke-linejoin:miter;stroke-miterlimit:4;stroke-opacity:1;stroke-dasharray:none;stroke-dashoffset:0;marker:none;visibility:visible;display:inline;overflow:visible" />
    </g>
  </g>
</svg>

<?xml version="1.0" encoding="UTF-8" standalone="no"?>
<!-- Created with Inkscape (http://www.inkscape.org/) -->
<svg
   xmlns:svg="http://www.w3.org/2000/svg"
   xmlns="http://www.w3.org/2000/svg"
   xmlns:xlink="http://www.w3.org/1999/xlink"
   version="1.0"
   width="24"
   height="24"
   id="svg2587">
  <defs
     id="defs2589">
    <linearGradient
       id="linearGradient5128">
      <stop
         id="stop5130"
         style="stop-color:#eeeeee;stop-opacity:1"
         offset="0" />
      <stop
         id="stop5132"
         style="stop-color:#a2a2a2;stop-opacity:1"
         offset="1" />
    </linearGradient>
    <linearGradient
       x1="86.132919"
       y1="105.105"
       x2="84.63858"
       y2="20.895"
       id="linearGradient3241"
       xlink:href="#linearGradient5128"
       gradientUnits="userSpaceOnUse"
       gradientTransform="matrix(0.1562313,0,0,0.1562313,2.0012016,2.1574324)" />
    <linearGradient
       id="linearGradient3397">
      <stop
         id="stop3399"
         style="stop-color:#aaaaaa;stop-opacity:1"
         offset="0" />
      <stop
         id="stop3401"
         style="stop-color:#8c8c8c;stop-opacity:1"
         offset="1" />
    </linearGradient>
    <linearGradient
       x1="40"
       y1="1"
       x2="40"
       y2="23.019524"
       id="linearGradient3228"
       xlink:href="#linearGradient3397"
       gradientUnits="userSpaceOnUse"
       gradientTransform="translate(-24.5,0)" />
    <linearGradient
       x1="63.9995"
       y1="3.1001"
       x2="63.9995"
       y2="122.8994"
       id="linearGradient3309"
       gradientUnits="userSpaceOnUse">
      <stop
         id="stop3311"
         style="stop-color:#f6f6f6;stop-opacity:1"
         offset="0" />
      <stop
         id="stop3313"
         style="stop-color:#d2d2d2;stop-opacity:1"
         offset="1" />
    </linearGradient>
    <linearGradient
       x1="34"
       y1="1"
       x2="34"
       y2="23.00024"
       id="linearGradient3218"
       xlink:href="#linearGradient3309"
       gradientUnits="userSpaceOnUse"
       gradientTransform="translate(-24.5,0)" />
    <linearGradient
       id="linearGradient10691">
      <stop
         id="stop10693"
         style="stop-color:#000000;stop-opacity:1"
         offset="0" />
      <stop
         id="stop10695"
         style="stop-color:#000000;stop-opacity:0"
         offset="1" />
    </linearGradient>
    <radialGradient
       cx="6.702713"
       cy="73.615715"
       r="7.228416"
       fx="6.702713"
       fy="73.615715"
       id="radialGradient2411"
       xlink:href="#linearGradient10691"
       gradientUnits="userSpaceOnUse"
       gradientTransform="matrix(1.660115,0,0,0.3458573,0.8727276,-3.9605294)" />
    <linearGradient
       id="linearGradient4222-0">
      <stop
         id="stop4224-8"
         style="stop-color:#ffffff;stop-opacity:1"
         offset="0" />
      <stop
         id="stop4226-8"
         style="stop-color:#ffffff;stop-opacity:0"
         offset="1" />
    </linearGradient>
    <linearGradient
       x1="32.23851"
       y1="37.684677"
       x2="21.87499"
       y2="18.892372"
       id="linearGradient2574"
       xlink:href="#linearGradient4222-0"
       gradientUnits="userSpaceOnUse"
       gradientTransform="matrix(0.3704967,0,0,-0.3617496,-24.509908,24.959309)" />
    <linearGradient
       id="linearGradient3303">
      <stop
         id="stop3305"
         style="stop-color:#cc7032;stop-opacity:1"
         offset="0" />
      <stop
         id="stop3307"
         style="stop-color:#bb2d13;stop-opacity:1"
         offset="0.8271265" />
      <stop
         id="stop3309"
         style="stop-color:#a87300;stop-opacity:0"
         offset="1" />
    </linearGradient>
    <linearGradient
       x1="24.003723"
       y1="19"
       x2="9"
       y2="19"
       id="linearGradient2572"
       xlink:href="#linearGradient3303"
       gradientUnits="userSpaceOnUse"
       gradientTransform="translate(-32.177854,-1.8738129)" />
    <linearGradient
       id="linearGradient3311">
      <stop
         id="stop2519"
         style="stop-color:#ecb56c;stop-opacity:1"
         offset="0" />
      <stop
         id="stop3315"
         style="stop-color:#e86225;stop-opacity:1"
         offset="0.82442904" />
      <stop
         id="stop3317"
         style="stop-color:#b07c0b;stop-opacity:0"
         offset="1" />
    </linearGradient>
    <linearGradient
       x1="0.26926842"
       y1="12.162322"
       x2="47.224953"
       y2="12.162322"
       id="linearGradient2570"
       xlink:href="#linearGradient3311"
       gradientUnits="userSpaceOnUse"
       gradientTransform="matrix(-0.319447,0,0,-0.313352,-8.091984,22.937275)" />
  </defs>
  <g
     id="layer1">
    <g
       id="g2568">
      <g
         id="g2486">
        <path
           d="M 24.000001,21.5 C 24.000001,22.880712 18.627418,24 12.000001,24 C 5.3725835,24 3e-07,22.880712 3e-07,21.5 C 3e-07,20.119288 5.3725835,19 12.000001,19 C 18.627418,19 24.000001,20.119288 24.000001,21.5 L 24.000001,21.5 z"
           id="path10689"
           style="opacity:0.2;fill:url(#radialGradient2411);fill-opacity:1;fill-rule:nonzero;stroke:none;stroke-width:0.80000001;marker:none;visibility:visible;display:inline;overflow:visible" />
        <path
           d="M 10.1875,1.5 C 9.799134,1.5 9.5,1.7991339 9.5,2.1875 L 9.5,3.875 C 8.988333,4.0322247 8.496816,4.2537684 8.03125,4.5 L 6.84375,3.3125 C 6.569134,3.0378838 6.118366,3.0378838 5.84375,3.3125 L 3.3125,5.84375 C 3.037884,6.1183662 3.037884,6.5691336 3.3125,6.84375 L 4.5,8.03125 C 4.253769,8.4968155 4.032225,8.9883329 3.875,9.5 L 2.1875,9.5 C 1.799134,9.5 1.5,9.7991344 1.5,10.1875 L 1.5,13.8125 C 1.5,14.200866 1.799134,14.5 2.1875,14.5 L 3.875,14.5 C 4.032225,15.011667 4.253769,15.503185 4.5,15.96875 L 3.3125,17.15625 C 3.037884,17.430866 3.037884,17.881634 3.3125,18.15625 L 5.84375,20.6875 C 6.118366,20.962116 6.569134,20.962116 6.84375,20.6875 L 8.03125,19.5 C 8.496816,19.746232 8.988333,19.967775 9.5,20.125 L 9.5,21.8125 C 9.5,22.200866 9.799135,22.5 10.1875,22.5 L 13.8125,22.5 C 14.200866,22.5 14.5,22.200866 14.5,21.8125 L 14.5,20.125 C 15.011667,19.967775 15.503185,19.746232 15.96875,19.5 L 17.15625,20.6875 C 17.430866,20.962116 17.881634,20.962116 18.15625,20.6875 L 20.6875,18.15625 C 20.962116,17.881634 20.962116,17.430866 20.6875,17.15625 L 19.5,15.96875 C 19.746232,15.503185 19.967775,15.011667 20.125,14.5 L 21.8125,14.5 C 22.200866,14.5 22.5,14.200866 22.5,13.8125 L 22.5,10.1875 C 22.5,9.7991341 22.200866,9.5 21.8125,9.5 L 20.125,9.5 C 19.967775,8.9883329 19.746232,8.4968155 19.5,8.03125 L 20.6875,6.84375 C 20.962116,6.5691338 20.962116,6.1183663 20.6875,5.84375 L 18.15625,3.3125 C 17.881634,3.0378838 17.430866,3.0378838 17.15625,3.3125 L 15.96875,4.5 C 15.503185,4.2537684 15.011667,4.0322247 14.5,3.875 L 14.5,2.1875 C 14.5,1.7991341 14.200866,1.5 13.8125,1.5 L 10.1875,1.5 L 10.1875,1.5 z M 12,9 C 13.656,9 15,10.344 15,12 C 15,13.656 13.656,15 12,15 C 10.344,15 9,13.656 9,12 C 9,10.344 10.344,9 12,9 z"
           id="rect2426"
           style="fill:url(#linearGradient3218);fill-opacity:1;fill-rule:nonzero;stroke:url(#linearGradient3228);stroke-width:1;stroke-linecap:butt;stroke-linejoin:round;marker:none;stroke-miterlimit:4;stroke-dasharray:none;stroke-dashoffset:0;stroke-opacity:1;visibility:visible;display:block;overflow:visible;enable-background:accumulate" />
        <path
           d="M 12,6 C 8.6915443,5.9999998 6.0000001,8.6915446 6.0000001,12 C 6.0000001,15.308455 8.6915443,18 12,18 C 15.308455,17.999999 18,15.308455 18,12 C 18,8.6915446 15.308455,6 12,6 z M 12,8.7692308 C 13.783385,8.7692308 15.230769,10.216615 15.230769,12 C 15.230769,13.783385 13.783385,15.230769 12,15.230769 C 10.216615,15.230769 8.7692308,13.783385 8.7692308,12 C 8.7692308,10.216615 10.216615,8.7692308 12,8.7692308 L 12,8.7692308 z"
           id="path3315"
           style="opacity:0.05;fill:#000000;fill-opacity:1;stroke:none" />
        <path
           d="M 11.999999,5.4999995 C 8.4158993,5.4999995 5.4999996,8.4158992 5.4999996,11.999999 C 5.4999996,15.5841 8.4158993,18.5 11.999999,18.5 C 15.584101,18.5 18.5,15.5841 18.5,11.999999 C 18.5,8.4158992 15.584101,5.4999995 11.999999,5.4999995 z"
           id="path28"
           style="fill:none;stroke:url(#linearGradient3241);stroke-width:1;stroke-miterlimit:4;stroke-dasharray:none" />
      </g>
    </g>
    <g
       transform="matrix(0,-1,1,0,1.87396,0.822146)"
       id="g2566">
      <path
         d="M -22.678854,18.626187 L -15.677854,18.626187 L -15.677854,21.62704 L -8.677001,15.62604 L -15.677854,9.6260401 L -15.677854,12.626187 L -22.678854,12.626187"
         id="path2911"
         style="fill:url(#linearGradient2570);fill-opacity:1;fill-rule:nonzero;stroke:url(#linearGradient2572);stroke-width:0.99800003;stroke-linecap:butt;stroke-linejoin:round;marker:none;stroke-miterlimit:4;stroke-dasharray:none;stroke-dashoffset:0;stroke-opacity:1;visibility:visible;display:inline;overflow:visible" />
      <path
         d="M -22.677854,17.626187 L -14.677854,17.626187 L -14.677854,19.377397 L -10.132739,15.62604 L -14.677854,11.82604 L -14.677854,13.626187 L -22.677854,13.626187"
         id="path2913"
         style="opacity:0.3;fill:none;stroke:url(#linearGradient2574);stroke-width:0.99829447;stroke-linecap:butt;stroke-linejoin:miter;marker:none;stroke-miterlimit:4;stroke-dasharray:none;stroke-dashoffset:0;stroke-opacity:1;visibility:visible;display:inline;overflow:visible" />
    </g>
  </g>
</svg>
